src/assets/bold/lm-file-arrow-right-bold.svg

<svg width="24" height="24" viewBox="0 0 24 24" fill="none" xmlns="http://www.w3.org/2000/svg" fill="currentColor">
<path d="M9.21967 2.46967C9.36032 2.32902 9.55109 2.25 9.75 2.25H18.75C19.1478 2.25 19.5294 2.40804 19.8107 2.68934C20.092 2.97065 20.25 3.35218 20.25 3.75V11.25C20.25 11.6642 19.9142 12 19.5 12C19.0858 12 18.75 11.6642 18.75 11.25V3.75H10.5V8.25C10.5 8.66421 10.1642 9 9.75 9H5.25V20.25H9C9.41421 20.25 9.75 20.5858 9.75 21C9.75 21.4142 9.41421 21.75 9 21.75H5.25C4.85218 21.75 4.47065 21.592 4.18934 21.3107C3.90803 21.0294 3.75 20.6478 3.75 20.25V8.25C3.75 8.05109 3.82902 7.86032 3.96967 7.71967L9.21967 2.46967ZM6.31066 7.5H9V4.81066L6.31066 7.5ZM15.803 12.2197C15.5101 12.5126 15.5101 12.9874 15.803 13.2803L18.6477 16.125H11.125C10.7108 16.125 10.375 16.4608 10.375 16.875C10.375 17.2892 10.7108 17.625 11.125 17.625H18.6477L15.803 20.4697C15.5101 20.7626 15.5101 21.2374 15.803 21.5303C16.0959 21.8232 16.5708 21.8232 16.8637 21.5303L20.9887 17.4053C21.2816 17.1124 21.2816 16.6376 20.9887 16.3447L16.8637 12.2197C16.5708 11.9268 16.0959 11.9268 15.803 12.2197Z" fill="black"/>
</svg>

<svg xmlns="http://www.w3.org/2000/svg" width="24" height="24" fill="currentColor" viewBox="0 0 24 24">
  <path d="M9.22 2.47a.75.75 0 0 1 .53-.22h9a1.5 1.5 0 0 1 1.5 1.5v7.5a.75.75 0 0 1-1.5 0v-7.5H10.5v4.5a.75.75 0 0 1-.75.75h-4.5v11.25H9a.75.75 0 0 1 0 1.5H5.25a1.5 1.5 0 0 1-1.5-1.5v-12a.75.75 0 0 1 .22-.53l5.25-5.25ZM6.31 7.5H9V4.81L6.31 7.5Zm9.493 4.72a.75.75 0 0 0 0 1.06l2.845 2.845h-7.523a.75.75 0 0 0 0 1.5h7.523l-2.845 2.845a.75.75 0 1 0 1.06 1.06l4.126-4.125a.75.75 0 0 0 0-1.06l-4.125-4.125a.75.75 0 0 0-1.061 0Z"/>
</svg>
